X: 2183
T: Şimdi Uzaklardasın
C: Zeki Müren
O: Turkey
F: http://compmusic.upf.edu/node/140
N: suzinak-zirgule--sarki--semai--simdi_uzaklardasin--zeki_muren
N: makam= suzinak-zirgule
N: form= sarki
N: usul= semai = 3/4
M: 3/4
L: 1/16
K: C _1/4B _7/8e _7/8A ^f
Q: 1/4=144
%%MIDI tuningsystem comma53
e4 d4 c4  | B4 A4 G4  | d12  | G2A2 B2c2 d4  | \
w:  ARANAĞME  |   |   |   | 
e4 d4 c4  | B4 c4 d2f2  | e12  | e2B2 c2d2 e4  | 
w:   |   |   |   | 
e4 d4 c4  | B4 A4 G2B2  | =F12  | c3B A3G =F4  | \
w:   |   |   |   | 
G4 A4 G4  | d8 B4  | G12  | G2A2 B2c2 d4  | 
w:   |   |   |   | 
e4 d4 c4  | B4 A4 G4  | d12  | G2A2 B2c2 d4  | \
w:  ARANAĞME  |   |   |   | 
e4 d4 c4  | B4 c4 d2f2  | e12  | e2B2 c2d2 e4  | 
w:   |   |   |   | 
e4 d4 c4  | B4 A4 G2B2  | =F12  | c3B A3G =F4  | \
w:   |   |   |   | 
G4 A4 G4  | d8 B4  | G12  | G2A2 B2c2 d4  | 
w:   |   |   |   | 
c8 d4  | d8 z4  | {f}e4 d4 c4  | B4 c2A2 A2G2  | d12  | d12  | \
w:  Şim  |  di   |  *  u zak  |  lar *  *  da  |  sın   |   | 
B4 c4 A2G2  | .d2.B2 .c2.d2 e4  | 
w:  SAZ  |   | 
d4 e8  | e4 d4 c4  | {c}d4 c4 B4  | c2d2 B2c2 A2G2  | G12  | G12  | \
w:  gö nül   |  hic  |  *  ran *  la   |  dol  |  du    |   | 
G4 A4 G4  | d8 B4  | 
w:  SAZ  |   | 
G12  | z2=f2 =e2_7/8e2 d4  | c8 d4  | d8 z4  | \
w:   |   |  Şim  |  di   | 
{f}e4 d4 c4  | B4 c2A2 A2G2  | d12  | d12  | \
w:  *  u zak  |  lar *  *  da  |  sın   |   | 
B4 c4 A2G2  | 
w:  SAZ  | 
.d2.B2 .c2.d2 e4  | d4 e8  | e4 d4 c4  | \
w:   |  gö nül   |  hic  | 
{c}d4 c4 B4  | c2d2 B2c2 A2G2  | G12  | G12  | 
w:  *  ran *  la   |  dol  |  du    |   | 
e4 d4 c4  | B4 A4 G4  | d8 e2d2  | c2d2 e2f2 g4  | \
w:  SAZ  |   |   |   | 
g8 z4  | {b}a4 g4 f4  | {f}e4 d4 c4  | 
w:  Hiç_  |  *  ay *  rı  |  *  la mam   | 
g2{a}f2 e4 e2d2  | e12  | e12  | g2f2 e4 e2d2  | e12  | \
w:  der  |  ken   |   |  SAZ  |   | 
d4 e4 c4  | B8 z4  | e4 d4 c4  | 
w:  ka vuş  |  mak   |  ha yal_  | 
B4 A4 B4  | G12  | G12  | e4 d4 c4  | B4 A4 G4  | \
w:  ol  |  du    |   |  SAZ  |   | 
d8 e2d2  | c2d2 e2f2 g4  | g8 z4  | 
w:   |   |  Hiç_  | 
{b}a4 g4 f4  | {f}e4 d4 c4  | g2{a}f2 e4 e2d2  | e12  | e12  | \
w:  *  ay *  rı  |  *  la mam   |  der  |  ken   |   | 
g2f2 e4 e2d2  | e12  | d4 e4 c4  | 
w:  SAZ  |   |  ka vuş  | 
B8 z4  | e4 d4 c4  | B4 A4 B4  | G12  | G12  | \
w:  mak   |  ha yal_  |  ol  |  du    |   | 
(3G2A2G2 (3A2B2A2 (3B2A2B2  | (3c2d2c2 (3d2e2d2 (3e2f2e2  | 
w:  SAZ  |   | 
(3f2g2f2 (3e2f2e2 (3f2g2f2  | g12  | \
w:   |   | 
f8 g4  | g12  | a2g2 a4 b4  | c'4 b2a2 {b}a2g2  | 
w:  Sev  |  da   |  bah *  *  çe  |  le ri  | 
g12  | g12  | g4 a8  | g4 f8  | e12  | d4 c4 d2f2  | e12  | e12  | \
w:  nin   |   |  çi çek  |  le ri   |  hep   |  sol  |  du    |   | 
d4 c4 d2f2  | e4 (3d2e2f2 g4  | 
w:  SAZ  |   | 
f4 g8  | f4 e8  | b12  | c'4 a4 b4  | g12  | g12  | \
w:  çi çek  |  le ri   |  hep   |  sol  |  du    |   | 
g4 f4 e2d2  | e2d2 e4 f4  | g3f e2f2 e2d2  | 
w:  SAZ  |   |   | 
c2d2 e2f2 g4  | g8 z4  | {b}a4 g4 f4  | \
w:   |  Hiç_  |  *  ay *  rı  | 
{f}e4 d4 c4  | g2{a}f2 e4 e2d2  | e12  | e12  | \
w:  *  la mam   |  der  |  ken   |   | 
g2f2 e4 e2d2  | 
w:  SAZ  | 
e12  | d4 e4 c4  | B8 z4  | e4 d4 c4  | B4 A4 B4  | G12  | G12  | |


